**kern	**kern	**dynam
*part1	*part1	*part1
*staff2	*staff1	*
*I"Piano	*	*
*clefF4	*clefG2	*
*k[b-e-a-]	*k[b-e-a-]	*
=1	=1	=1
*tremolo	*	*
*	*tremolo	*
32F 32cLLL	32f 32a- 32ddLLL	f
32F 32c	32f 32a- 32dd	.
32F 32c	32f 32a- 32dd	.
32F 32c	32f 32a- 32dd	.
32F 32c	32f 32a- 32dd	.
32F 32c	32f 32a- 32dd	.
32F 32c	32f 32a- 32dd	.
32F 32c	32f 32a- 32dd	.
32F 32c	32f 32a- 32dd	.
32F 32c	32f 32a- 32dd	.
32F 32c	32f 32a- 32dd	.
32F 32c	32f 32a- 32dd	.
32F 32c	32f 32a- 32dd	.
32F 32c	32f 32a- 32dd	.
32F 32c	32f 32a- 32dd	.
32F 32c	32f 32a- 32dd	.
32F 32c	32f 32a- 32dd	.
32F 32c	32f 32a- 32dd	.
32F 32c	32f 32a- 32dd	.
32F 32c	32f 32a- 32dd	.
32F 32c	32f 32a- 32dd	.
32F 32c	32f 32a- 32dd	.
32F 32c	32f 32a- 32dd	.
32F 32cJJJ	32f 32a- 32ddJJJ	.
=	=	=
4F 4c	4f 4a- 4dd	.
4r	4r	.
4r	4r	.
=	=	=
32F 32cLLL	32e- 32an 32ccLLL	p
32F 32c	32e- 32an 32cc	.
32F 32c	32e- 32an 32cc	.
32F 32c	32e- 32an 32cc	.
32F 32c	32e- 32an 32cc	.
32F 32c	32e- 32an 32cc	.
32F 32c	32e- 32an 32cc	.
32F 32c	32e- 32an 32cc	.
32F 32c	32e- 32an 32cc	.
32F 32c	32e- 32an 32cc	.
32F 32c	32e- 32an 32cc	.
32F 32c	32e- 32an 32cc	.
32F 32c	32e- 32an 32cc	.
32F 32c	32e- 32an 32cc	.
32F 32c	32e- 32an 32cc	.
32F 32cJJJ	32e- 32an 32ccJJJ	.
8F 8c	8e- 8a 8cc	.
8r	8r	.
=	=	=
32F#X 32cLLL	32e- 32an 32ccLLL	mp <
32F#X 32c	32e- 32an 32cc	.
32F#X 32c	32e- 32an 32cc	.
32F#X 32c	32e- 32an 32cc	.
32F#X 32c	32e- 32an 32cc	.
32F#X 32c	32e- 32an 32cc	.
32F#X 32c	32e- 32an 32cc	.
32F#X 32c	32e- 32an 32cc	.
32F#X 32c	32e- 32an 32cc	.
32F#X 32c	32e- 32an 32cc	.
32F#X 32c	32e- 32an 32cc	.
32F#X 32c	32e- 32an 32cc	.
32F#X 32c	32e- 32an 32cc	.
32F#X 32c	32e- 32an 32cc	.
32F#X 32c	32e- 32an 32cc	.
32F#X 32cJJJ	32e- 32an 32ccJJJ	.
8Fn 8c	8e- 8a 8cc	[
8r	8r	.
=	=	=
*	*^	*
32G 32BnLLL	32d 32g 32bnLLL	4.ryy	mf <
32G 32Bn	32d 32g 32bn	.	.
32G 32Bn	32d 32g 32bn	.	.
32G 32Bn	32d 32g 32bn	.	.
32G 32Bn	32d 32g 32bn	.	.
32G 32Bn	32d 32g 32bn	.	.
32G 32Bn	32d 32g 32bn	.	.
32G 32Bn	32d 32g 32bn	.	.
32G 32Bn	32d 32g 32bn	.	.
32G 32Bn	32d 32g 32bn	.	.
32G 32Bn	32d 32g 32bn	.	.
32G 32Bn	32d 32g 32bn	.	.
32G 32Bn	32d 32g 32bn	4.ryy	[ >
32G 32Bn	32d 32g 32bn	.	.
32G 32Bn	32d 32g 32bn	.	.
32G 32Bn	32d 32g 32bn	.	.
32G 32Bn	32d 32g 32bn	.	.
32G 32Bn	32d 32g 32bn	.	.
32G 32Bn	32d 32g 32bn	.	.
32G 32Bn	32d 32g 32bn	.	.
32G 32Bn	32d 32g 32bn	.	.
32G 32Bn	32d 32g 32bn	.	.
32G 32Bn	32d 32g 32bn	.	.
32G 32BnJJJ	32d 32g 32bnJJJ	.	.
*	*Xtremolo	*	*
*Xtremolo	*	*	*
*	*v	*v	*
=	=	=
4G 4Bn	4d 4g 4bn	] mp
4r	4r	.
4r	4r	.
=	=	=
!	!LO:TX:b:i:t=dolce	!
8CL	8ccL 8een	p
8G	8enJ 8g	<
8c	8ccL 8ee	.
8G	8eJ 8g	.
8C	8ccL 8ee	.
8GJ	8eJ 8g	.
=	=	=
*-	*-	*-
!!!system-decoration: {(s1,s2)}
